src/main/resources/icons/AllIcons/actions/edit.svg

<!-- Copyright 2000-2021 JetBrains s.r.o. Use of this source code is governed by the Apache 2.0 license that can be found in the LICENSE file. -->
<svg xmlns="http://www.w3.org/2000/svg" width="16" height="16" viewBox="0 0 16 16">
  <path fill="#6E6E6E" fill-rule="evenodd" d="M12.299331,6.74049726 L9.29952586,3.74069209 L2,10.9993506 L2,13.9991557 L4.99980517,13.9991557 L12.299331,6.74049726 Z M14.7991687,4.24065962 C15.1202771,3.91952035 15.1202771,3.0618963 14.7991687,2.74075703 L13.2992661,1.24085445 C12.9781577,0.919715183 12.1204719,0.919715183 11.7993635,1.24085445 L10.2994609,2.74075703 L13.2992661,5.7405622 L14.7991687,4.24065962 Z"/>
</svg>

<svg xmlns="http://www.w3.org/2000/svg" width="16" height="16" viewBox="0 0 16 16"><rect id="frame" width="16" height="16" fill="none"/><path fill="#6E6E6E" fill-rule="evenodd" d="M12.3 6.74l-3-3L2 11v3h3l7.3-7.26zm2.5-2.5c.32-.32.32-1.178 0-1.5l-1.5-1.5c-.322-.32-1.18-.32-1.5 0l-1.5 1.5 3 3 1.5-1.5z"/></svg>
